**kern	**kern	**dynam
*part1	*part1	*part1
*staff2	*staff1	*
*I"Piano	*	*
*clefF4	*clefG2	*
*k[b-]	*k[b-]	*
=1	=1	=1
4AA 4D	4c 4d 4f#X	.
4r	4r	.
4r	4r	.
=	=	=
.	(8qa/	.
4BBn 4D	(4g)	.
4r	4f#X	.
4r	4g	.
=	=	=
(4C#X 4E	4g 4b-X	.
4D 4Fn	4fn 4a	.
4E 4G	4e 4g	.
=	=	=
4F) 4A	4d) 4f	.
4r	4r	.
4r	4r	.
=	=	=
4FF	4A 4c 4d	pp
4r	4r	.
4r	4r	.
=	=	=
4r	4r	.
(4GG'	(4E' 4c 4e	.
4GG'	4E' 4c 4e	.
=	=	=
4GG'	4E' 4c 4e	.
4GG'	4E' 4c 4e	.
4GG'	4E' 4c 4e	.
=	=	=
*-	*-	*-
!!!system-decoration: {(s1,s2)}
